!!!!SEGMENT: pl-cz--iii-979--001-002_kasprzykowski-ignacy--missa-es-gloria.krn
!!!cenid: 18xx:857
!!!COM: Kasprzykowski, Ignacy
!!!COM-rismID: pe30098316
!!!CDT: -1752/02/17
!!!CNT:
!!!OPR: Missa Es
!!!OTL: Gloria
!!!OMV: 002
!!!PDT:
!!!AGN: Sacred; Mass
!!!SMS-siglum: PL-CZ
!!!SMS-shelfmark: III-979
!!!SMS-shelfwork: 001-002 M
!!!SMS-variant:
!!!SMS-altvar:
!!!NIFC-rismSourceID: 300000565
!!!NIFC-rismChildID: 300000565
!!!NIFC-islandoraID: pl-cz:41795
!!!URL-pdf-islandora: https://repozytorium.nifc.pl/islandora/object/pl-cz%3A41795/datastream/PDF/view
!!!URL-scan: https://polish.musicsources.pl/pl/lokalizacje/galeria/rekopisy/7044/1 @EN{Scan on Polish Music Sources Website} @PL{Skany w portalu Dziedzictwo Muzyki Polskiej w otwartym dostępie}
!!!IIIF:
!!!ONB-nifc: UWAGA: części Mszy: Kyrie, Gloria, Credo, Et incarnatus, Et resurrexit, Sanctus, Pleni, Benedictus, Agnus
!!!OMD: Allegro Molto
!!!AIN: 1 bass 1 clars 1 soprn 1 violn
!!!key: E-
**kern	**dynam	**kern	**text	**dynam	**kern	**text	**dynam	**kern	**dynam
*part4	*part4	*part3	*part3	*part3	*part2	*part2	*	*part1	*part1
*staff4	*	*staff3	*staff3	*	*staff2	*staff2	*	*staff1	*
*I"Violino Primo in Dis	*	*I"Baſso in Dis	*	*	*I"Canto in. Dis	*	*	*I"Clarinetto Primo in B	*
*I'vl 1 in Dis	*	*I'B	*	*	*I'S	*	*	*I'cl 1 in B	*
*Ivioln	*	*Ibass	*	*	*Isoprn	*	*	*Iclars	*
*ICstr	*	*ICvox	*	*	*ICvox	*	*	*ICww	*
*	*	*IGsolo	*	*	*IGsolo	*	*	*	*
*mI"Violino I	*	*mI"Basso	*	*	*mI"Soprano	*	*	*mI"Clarinetto I in Bb	*
*clefG2	*	*clefF4	*	*	*clefC1	*	*	*clefG2	*
*	*	*	*	*	*mclefG2	*	*	*	*
*	*	*	*	*	*	*	*	*ITrd1c2	*
*	*	*	*	*	*ok[b-a-e-]	*	*	*	*
*k[b-e-a-]	*	*k[b-e-a-]	*	*	*k[b-e-a-]	*	*	*k[b-e-a-]	*
*E-:	*	*E-:	*	*	*E-:	*	*	*E-:	*
*M4/4	*	*M4/4	*	*	*M4/4	*	*	*M4/4	*
*met(c)	*	*met(c)	*	*	*met(c)	*	*	*met(c)	*
=1	=1	=1	=1	=1	=1	=1	=1	=1	=1
!	!	!	!	!	!	!	!	!LO:MO:mod=*null:null	!
*	*	*	*	*	*	*	*	*2\right	*
!	!	!LO:TX:a:Bi:t=Allegro Molto:mod=	!	!	!LO:TX:a:mod=:t=12.:mod=	!	!	!LO:TX:a:Bi:t=allegro:mod=	!
!LO:TX:a:Bi:t=Allegro molto.:mod=	!LO:DY:b	!LO:TX:a:mod=:t=12.:mod=	!	!	!LO:TX:a:Bi:t=Allegro Molto:mod=	!	!	!	!LO:DY:b:t=for.
!	!LO:MO:mod=f	!	!	!	!	!	!	!	!
(>4.g\ 4.ee-	fz	1r	.	.	1r	.	.	2ee-\	f
!	!LO:DY:b	!	!	!	!	!	!	!	!
16dd\LL	p	.	.	.	.	.	.	.	.
16cc\JJ)	.	.	.	.	.	.	.	.	.
4b-'\	.	.	.	.	.	.	.	2r	.
4b-'\	.	.	.	.	.	.	.	.	.
=2	=2	=2	=2	=2	=2	=2	=2	=2	=2
!	!	!	!	!	!	!	!	!LO:TX:a:mod=:t=1.	!
8cc'\	.	1r	.	.	1r	.	.	1r	.
8r	.	.	.	.	.	.	.	.	.
8b-'\	.	.	.	.	.	.	.	.	.
8r	.	.	.	.	.	.	.	.	.
8cc'\	.	.	.	.	.	.	.	.	.
8r	.	.	.	.	.	.	.	.	.
8dd'\	.	.	.	.	.	.	.	.	.
8r	.	.	.	.	.	.	.	.	.
=3	=3	=3	=3	=3	=3	=3	=3	=3	=3
!	!LO:DY:b	!	!	!	!	!	!	!	!
(>4.e-\ 4.ee-	f	1r	.	.	1r	.	.	2ee-\	.
!	!LO:DY:b	!	!	!	!	!	!	!	!
16dd\LL	p	.	.	.	.	.	.	.	.
16cc\JJ)	.	.	.	.	.	.	.	.	.
4b-'\	.	.	.	.	.	.	.	2r	.
4b-'\	.	.	.	.	.	.	.	.	.
=4	=4	=4	=4	=4	=4	=4	=4	=4	=4
!	!	!	!	!	!	!	!	!LO:TX:a:mod=:t=1.	!
8cc|>\	.	1r	.	.	1r	.	.	1r	.
8r	.	.	.	.	.	.	.	.	.
8b-|>\	.	.	.	.	.	.	.	.	.
8r	.	.	.	.	.	.	.	.	.
8cc|>\	.	.	.	.	.	.	.	.	.
8r	.	.	.	.	.	.	.	.	.
8dd|>\	.	.	.	.	.	.	.	.	.
8r	.	.	.	.	.	.	.	.	.
=5	=5	=5	=5	=5	=5	=5	=5	=5	=5
8ee-\L	.	1r	.	.	1r	.	.	4ee-\	.
8ff\	.	.	.	.	.	.	.	.	.
8gg\	.	.	.	.	.	.	.	4r	.
8gg\J	.	.	.	.	.	.	.	.	.
4gg\	.	.	.	.	.	.	.	2r	.
4bb-\	.	.	.	.	.	.	.	.	.
!LO:LB:g=original	!	!	!	!	!	!	!	!	!
=6	=6	=6	=6	=6	=6	=6	=6	=6	=6
8bb-\L	.	1r	.	.	1r	.	.	4ff\	.
8ff\	.	.	.	.	.	.	.	.	.
8ff\	.	.	.	.	.	.	.	4r	.
8ff\J	.	.	.	.	.	.	.	.	.
4ff\	.	.	.	.	.	.	.	2r	.
4ccc\	.	.	.	.	.	.	.	.	.
=7	=7	=7	=7	=7	=7	=7	=7	=7	=7
(>8aan\L	.	1r	.	.	1r	.	.	4ff\	.
8ff\)	.	.	.	.	.	.	.	.	.
8ff\	.	.	.	.	.	.	.	4r	.
8ff\J	.	.	.	.	.	.	.	.	.
8ff\L	.	.	.	.	.	.	.	4ff\	.
8ff\	.	.	.	.	.	.	.	.	.
8gg\	.	.	.	.	.	.	.	4r	.
8aa\J	.	.	.	.	.	.	.	.	.
=8	=8	=8	=8	=8	=8	=8	=8	=8	=8
4.bb-\	.	1r	.	.	1r	.	.	4ff\	.
.	.	.	.	.	.	.	.	4r	.
8ff\	.	.	.	.	.	.	.	.	.
4.ddd\	.	.	.	.	.	.	.	4ff\	.
.	.	.	.	.	.	.	.	4r	.
8bb-\	.	.	.	.	.	.	.	.	.
=9	=9	=9	=9	=9	=9	=9	=9	=9	=9
!	!	!	!	!	!	!	!	!LO:TX:mod=:t=P:problem=2 takty zapisane repetycją	!
(>8ccc\L	.	1r	.	.	1r	.	.	4ff\yy	.
8aan\)	.	.	.	.	.	.	.	.	.
8ff\	.	.	.	.	.	.	.	4ryy	.
8ff\J	.	.	.	.	.	.	.	.	.
8ff\L	.	.	.	.	.	.	.	4ff\	.
8ff\	.	.	.	.	.	.	.	.	.
8gg\	.	.	.	.	.	.	.	4ryy	.
8aa\J	.	.	.	.	.	.	.	.	.
=10	=10	=10	=10	=10	=10	=10	=10	=10	=10
8qqccc/	.	.	.	.	.	.	.	.	.
(>4.bb-\	.	1r	.	.	1r	.	.	4ff\yy	.
.	.	.	.	.	.	.	.	4ryy	.
8aan\)	.	.	.	.	.	.	.	.	.
8qqccc/	.	.	.	.	.	.	.	.	.
(>4.bb-\	.	.	.	.	.	.	.	4ff\yy	.
.	.	.	.	.	.	.	.	4ryy	.
8aa\)	.	.	.	.	.	.	.	.	.
!	!	!	!	!	!	!	!	!LO:LB:g=original	!
=11	=11	=11	=11	=11	=11	=11	=11	=11	=11
(>8bb-\L	.	1r	.	.	1r	.	.	4ff\	.
8bbn\	.	.	.	.	.	.	.	.	.
8ddd\	.	.	.	.	.	.	.	4r	.
8ccc\J	.	.	.	.	.	.	.	.	.
8bb-X\L	.	.	.	.	.	.	.	2r	.
8aa-X\	.	.	.	.	.	.	.	.	.
8gg\	.	.	.	.	.	.	.	.	.
8ff\J)	.	.	.	.	.	.	.	.	.
=12	=12	=12	=12	=12	=12	=12	=12	=12	=12
!	!	!	!	!	!	!	!	!LO:TX:a:mod=:t=1.	!
(>8een\L	.	1r	.	.	1r	.	.	1r	.
8ff\	.	.	.	.	.	.	.	.	.
8aa-\	.	.	.	.	.	.	.	.	.
8ff\J	.	.	.	.	.	.	.	.	.
8ee-X\L	.	.	.	.	.	.	.	.	.
8dd\	.	.	.	.	.	.	.	.	.
8cc\	.	.	.	.	.	.	.	.	.
8b-\J)	.	.	.	.	.	.	.	.	.
=13	=13	=13	=13	=13	=13	=13	=13	=13	=13
!	!	!LO:MO:mod=*null:null	!	!	!LO:MO:mod=*null:null	!	!	!	!
*	*	*2\right	*	*	*2\right	*	*	*	*
!	!	!	!	!	!	!	!LO:DY:t= :mod=%s	!	!
!	!	!	!	!	!	!	!LO:MO:mod=!LO&colon;DY&colon;ed=brack	!	!
!	!LO:DY:b:t=for.	!	!	!LO:DY:b:t=for:rj	!	!	!null	!	!LO:DY:b:t=f.
(>4.e-\ 4.ee-	f	2E-\	Glo-	f	2ee-\	Glo-	f	2ee-\	f
!	!LO:DY:b	!	!	!	!	!	!	!	!
16dd\LL	p	.	.	.	.	.	.	.	.
16cc\JJ)	.	.	.	.	.	.	.	.	.
4b-'\	.	2r	.	.	2r	.	.	2r	.
4b-'\	.	.	.	.	.	.	.	.	.
=14	=14	=14	=14	=14	=14	=14	=14	=14	=14
!	!	!LO:TX:a:mod=:t=1	!	!	!LO:TX:a:mod=:t=1	!	!	!LO:TX:a:mod=:t=1.	!
8cc|>\	.	1r	.	.	1r	.	.	1r	.
8r	.	.	.	.	.	.	.	.	.
8b-|>\	.	.	.	.	.	.	.	.	.
8r	.	.	.	.	.	.	.	.	.
8cc|>\	.	.	.	.	.	.	.	.	.
8r	.	.	.	.	.	.	.	.	.
8dd|>\	.	.	.	.	.	.	.	.	.
8r	.	.	.	.	.	.	.	.	.
=15	=15	=15	=15	=15	=15	=15	=15	=15	=15
!	!LO:DY:b:t=f.	!	!	!	!	!	!	!	!
(4.e-\ 4.ee-	f	2E-\	-ri-	.	2ee-\	-ri-	.	2ee-\	.
!	!LO:DY:b:t=p.	!	!	!	!	!	!	!	!
16dd\LL	p	.	.	.	.	.	.	.	.
16cc\JJ)	.	.	.	.	.	.	.	.	.
4b-'\	.	2r	.	.	2r	.	.	2r	.
4b-'\	.	.	.	.	.	.	.	.	.
=16	=16	=16	=16	=16	=16	=16	=16	=16	=16
!	!	!LO:TX:a:mod=:t=1	!	!	!LO:TX:a:mod=:t=1	!	!	!LO:TX:a:mod=:t=1.	!
8cc|>\	.	1r	.	.	1r	.	.	1r	.
8r	.	.	.	.	.	.	.	.	.
8b-|>\	.	.	.	.	.	.	.	.	.
8r	.	.	.	.	.	.	.	.	.
8cc|>\	.	.	.	.	.	.	.	.	.
8r	.	.	.	.	.	.	.	.	.
8dd|>\	.	.	.	.	.	.	.	.	.
8r	.	.	.	.	.	.	.	.	.
=17	=17	=17	=17	=17	=17	=17	=17	=17	=17
!	!LO:DY:b:t=for.	!	!	!	!	!	!	!	!
4.e-\ 4.ee-	f	2E-\	-a	.	2ee-\	-a	.	2ee-\	.
8b-\	.	.	.	.	.	.	.	.	.
8g\L	.	2r	.	.	2r	.	.	2r	.
8b-\	.	.	.	.	.	.	.	.	.
8ee-\	.	.	.	.	.	.	.	.	.
8ff\J	.	.	.	.	.	.	.	.	.
!LO:LB:g=original	!	!	!	!	!	!	!	!	!
=18	=18	=18	=18	=18	=18	=18	=18	=18	=18
4.b-\ 4.gg	.	2E-\	in	.	2ee-\	in	.	2gg\	.
8ee-\	.	.	.	.	.	.	.	.	.
8b-\L	.	2r	.	.	2r	.	.	2r	.
8ee-\	.	.	.	.	.	.	.	.	.
8gg\	.	.	.	.	.	.	.	.	.
8bb-\J	.	.	.	.	.	.	.	.	.
!	!	!	!	!	!LO:LB:g=original	!	!	!	!
=19	=19	=19	=19	=19	=19	=19	=19	=19	=19
!LO:TX:mod=:t=P:problem=takt niepełny	!	!	!	!	!	!	!	!	!
8b-\ 8aa-	.	2BB-/	ex-	.	2dd\	ex-	.	8ff\	.
!LO:MO:mod=4b-\ 4aa-	!	!	!	!	!	!	!	!	!
4b-\yy 4aa-yy	.	.	.	.	.	.	.	4ff\	.
4b-\ 4aa-	.	.	.	.	.	.	.	4ff\	.
.	.	4BB-/	-cel-	.	4dd\	-cel-	.	.	.
4b-\ 4aa-	.	.	.	.	.	.	.	4ff\	.
.	.	4BB-/	-sis	.	4dd\	-sis	.	.	.
8b-\ 8aa-	.	.	.	.	.	.	.	8ff\	.
!	!	!LO:LB:g=original	!	!	!	!	!	!	!
=20	=20	=20	=20	=20	=20	=20	=20	=20	=20
8f\ 8dd	.	2B-\	De-	.	2dd\	De-	.	8bb-\	.
!LO:TX:mod=:t=P:problem=takt niepełny	!	!	!	!	!	!	!	!	!
!LO:MO:mod=4f\ 4dd	!	!	!	!	!	!	!	!	!
4f\yy 4ddyy	.	.	.	.	.	.	.	4bb-\	.
4f\ 4dd	.	.	.	.	.	.	.	4bb-\	.
.	.	2B-\	-o	.	2dd\	-o	.	.	.
4f\ 4dd	.	.	.	.	.	.	.	4bb-\	.
8f\ 8dd	.	.	.	.	.	.	.	8bb-\	.
=21	=21	=21	=21	=21	=21	=21	=21	=21	=21
!LO:TX:mod=:t=P:problem=4 takty zapisane repetycją	!LO:DY:b:t=for.	!	!	!	!	!	!	!	!
4.e-\ 4.ee-	f	2E-\	Glo-	.	2ee-\	Glo-	.	2ee-\	.
8b-\	.	.	.	.	.	.	.	.	.
8g\L	.	2r	.	.	2r	.	.	2r	.
8b-\	.	.	.	.	.	.	.	.	.
8ee-\	.	.	.	.	.	.	.	.	.
8ff\J	.	.	.	.	.	.	.	.	.
=22	=22	=22	=22	=22	=22	=22	=22	=22	=22
!	!	!	!	!	!	!	!	!LO:N:vis=2.	!
4.b-\ 4.gg	.	2E-\	-ri-	.	2ee-\	-ri-	.	2gg\	.
8ee-\	.	.	.	.	.	.	.	.	.
8b-\L	.	2r	.	.	2r	.	.	2r	.
8ee-\	.	.	.	.	.	.	.	.	.
8gg\	.	.	.	.	.	.	.	.	.
8bb-\J	.	.	.	.	.	.	.	.	.
!	!	!	!	!	!	!	!	!LO:LB:g=original	!
=23	=23	=23	=23	=23	=23	=23	=23	=23	=23
!LO:TX:mod=:t=P:problem=takt niepełny	!	!	!	!	!	!	!	!	!
8b-\ 8aa-	.	2BB-/	a	.	2dd\	a	.	8ff\	.
!LO:MO:mod=4b-\ 4aa-	!	!	!	!	!	!	!	!	!
4b-\yy 4aa-yy	.	.	.	.	.	.	.	4ff\	.
4b-\ 4aa-	.	.	.	.	.	.	.	4ff\	.
.	.	4BB-/	in	.	4dd\	in	.	.	.
4b-\ 4aa-	.	.	.	.	.	.	.	4ff\	.
.	.	4BB-/	ex-	.	4dd\	ex-	.	.	.
8b-\ 8aa-	.	.	.	.	.	.	.	8ff\	.
=24	=24	=24	=24	=24	=24	=24	=24	=24	=24
8f\ 8dd	.	2B-\	-cel-	.	2dd\	-cel-	.	8bb-\	.
!LO:TX:mod=:t=P:problem=takt niepełny	!	!	!	!	!	!	!	!	!
!LO:MO:mod=4f\ 4dd	!	!	!	!	!	!	!	!	!
4f\yy 4ddyy	.	.	.	.	.	.	.	4bb-\	.
4f\ 4dd	.	.	.	.	.	.	.	4bb-\	.
.	.	2B-\	-siſ	.	2dd\	-siſ	.	.	.
4f\ 4dd	.	.	.	.	.	.	.	4bb-\	.
8f\ 8dd	.	.	.	.	.	.	.	8bb-\	.
=25	=25	=25	=25	=25	=25	=25	=25	=25	=25
8ee-\L	.	4E-\	De-	.	4ee-\	De-	.	4gg\	.
8b-\	.	.	.	.	.	.	.	.	.
8b-\	.	4r	.	.	4r	.	.	4r	.
8b-\J	.	.	.	.	.	.	.	.	.
8g\L	.	4r	.	.	4r	.	.	4r	.
8b-\	.	.	.	.	.	.	.	.	.
8ee-\	.	4E-\	-o	.	4ee-\	-o	.	4gg\	.
8b-\J	.	.	.	.	.	.	.	.	.
=26	=26	=26	=26	=26	=26	=26	=26	=26	=26
8dd\L	.	4BB-/	Glo-	.	4dd\	Glo-	.	4ff\	.
8b-\	.	.	.	.	.	.	.	.	.
8b-\	.	4r	.	.	4r	.	.	4r	.
8b-\J	.	.	.	.	.	.	.	.	.
8f\L	.	4r	.	.	4r	.	.	4r	.
8b-\	.	.	.	.	.	.	.	.	.
8dd\	.	4BB-/	-ri-	.	4dd\	-ri-	.	4ff\	.
8b-\J	.	.	.	.	.	.	.	.	.
!	!	!	!	!	!LO:LB:g=original	!	!	!	!
=27	=27	=27	=27	=27	=27	=27	=27	=27	=27
8ee-\L	.	4E-\	-a	.	4ee-\	-a	.	4gg\	.
8b-\	.	.	.	.	.	.	.	.	.
8b-\	.	4r	.	.	4r	.	.	4r	.
8b-\J	.	.	.	.	.	.	.	.	.
8g\L	.	4r	.	.	4r	.	.	4r	.
8b-\	.	.	.	.	.	.	.	.	.
8gg\	.	4E-\	in	.	4ee-\	in	.	4gg\	.
8b-\J	.	.	.	.	.	.	.	.	.
!LO:LB:g=original	!	!	!	!	!	!	!	!	!
=28	=28	=28	=28	=28	=28	=28	=28	=28	=28
!LO:TX:mod=:t=P:problem=początek taktu niewidoczny	!	!	!	!	!	!	!	!	!
!LO:MO:mod=8ee-L	!	!	!	!	!	!	!	!	!
8ryy	.	4B-\	ex-	.	4dd\	ex-	.	4ff\	.
!LO:MO:mod=8b-	!	!	!	!	!	!	!	!	!
8b-\L	.	.	.	.	.	.	.	.	.
8b-\	.	4r	.	.	4r	.	.	4r	.
8b-\J	.	.	.	.	.	.	.	.	.
8f\L	.	4r	.	.	4r	.	.	4r	.
8b-\	.	.	.	.	.	.	.	.	.
8dd\	.	4BB-/	-cel-	.	4dd\	-cel-	.	4ff\	.
8b-\J	.	.	.	.	.	.	.	.	.
=29	=29	=29	=29	=29	=29	=29	=29	=29	=29
4G/ 4e- 4ee-	.	4E-\	-siſ	.	4ee-\	-siſ	.	4gg\	.
4G/ 4e- 4ee-	.	4E-\	De-	.	4ee-\	De-	.	4ee-\	.
4G/ 4e- 4ee-	.	4E-\	-o	.	4ee-\	-o	.	4ee-\	.
!LO:TX:b:i:t=finis:mod=	!	!LO:TX:a:i:t=finis:mod=	!	!	!	!	!	!	!
4r	.	4r	.	.	4r	.	.	4r	.
!	!	!LO:LB:g=original	!	!	!	!	!	!	!
!!LO:TX:a:B:rj:t=:mod=Fine
=30||	=30||	=30||	=30||	=30||	=30||	=30||	=30||	=30||	=30||
4.d\ 4.bn 4.gg	.	1G	Et	.	1dd	Et	.	4.gg\	.
8d\ 8b 8gg	.	.	.	.	.	.	.	8gg\	.
4.d\ 4.b 4.gg	.	.	.	.	.	.	.	4.gg\	.
8d\ 8b 8gg	.	.	.	.	.	.	.	8gg\	.
=31	=31	=31	=31	=31	=31	=31	=31	=31	=31
!LO:SIC:v:s=4d/ 4b 4gg	!	!	!	!	!	!	!	!	!
4d/ 4b- 4gg	.	2G\	in	.	2dd\	in	.	4gg\	.
!LO:SIC:v:s=4d/ 4b 4gg	!	!	!	!	!	!	!	!	!
4d/ 4b- 4gg	.	.	.	.	.	.	.	4gg\	.
8r	.	2r	.	.	2r	.	.	2r	.
8gg\L	.	.	.	.	.	.	.	.	.
8gg\	.	.	.	.	.	.	.	.	.
8gg\J	.	.	.	.	.	.	.	.	.
!	!	!	!	!	!	!	!	!LO:LB:g=original	!
=32	=32	=32	=32	=32	=32	=32	=32	=32	=32
!LO:MO:mod=!LO&colon;TX&colon;&colon;i&colon;t=dolce	!	!	!	!	!	!	!	!	!
!null	!LO:DY:b:t=p.	!	!	!	!LO:TX:a:i:t=Solo:mod=	!	!	!LO:TX:a:t=2.:mod=	!
(>(>8gg\L	p	2E-\	ter-	.	2cc\	ter-	.	0r	.
!LO:MO:mod=!null:null	!	!	!	!	!	!	!	!	!
!LO:TX:b:i:t=dolce	!	!	!	!	!	!	!	!	!
8ff\)	.	.	.	.	.	.	.	.	.
(>8aa-X\	.	.	.	.	.	.	.	.	.
8gg\J)	.	.	.	.	.	.	.	.	.
(>8bb-\L	.	4E-\	-ra	.	4cc\	-ra	.	.	.
8aa-\)	.	.	.	.	.	.	.	.	.
(>8gg\	.	4E-\	pax	.	4cc\	pax	.	.	.
8ff\J))	.	.	.	.	.	.	.	.	.
=33	=33	=33	=33	=33	=33	=33	=33	=33	=33
!	!	!LO:SIC:v:s=2F-	!	!	!	!	!	!	!
(8ee-\L	.	2E-\	ho-	.	2cc\	ho-	.	.	.
8dd\	.	.	.	.	.	.	.	.	.
8aa-\	.	.	.	.	.	.	.	.	.
8gg\J	.	.	.	.	.	.	.	.	.
!	!	!LO:SIC:v:s=2F-	!	!	!	!	!	!	!
8ff\L	.	2E-\	-mi-	.	2cc\	-mi-	.	.	.
8ee-\	.	.	.	.	.	.	.	.	.
8dd\	.	.	.	.	.	.	.	.	.
8cc\J)	.	.	.	.	.	.	.	.	.
!!LO:LB:g=original
=34	=34	=34	=34	=34	=34	=34	=34	=34	=34
!LO:TX:mod=:t=P:problem=początek taktu niewidoczny	!	!	!	!	!	!	!	!	!
!LO:MO:mod=4.b-\ 4.ff	!	!	!	!	!	!	!	!	!
4.b-\yy 4.ffyy	.	1B-	-ni-	.	1ff	-ni-	.	4.dd\	.
8b-\ 8ff	.	.	.	.	.	.	.	8dd\	.
4.b-\ 4.ff	.	.	.	.	.	.	.	4.dd\	.
8b-\ 8ff	.	.	.	.	.	.	.	8dd\	.
=35	=35	=35	=35	=35	=35	=35	=35	=35	=35
4b-\ 4ff	.	2B-\	-bus	.	2ff\	-bus	.	4dd\	.
4b-\ 4ff	.	.	.	.	.	.	.	4dd\	.
8r	.	2r	.	.	2r	.	.	2r	.
8ff\L	.	.	.	.	.	.	.	.	.
8ff\	.	.	.	.	.	.	.	.	.
8ff\J	.	.	.	.	.	.	.	.	.
!	!	!	!	!	!LO:LB:g=original	!	!	!	!
=36	=36	=36	=36	=36	=36	=36	=36	=36	=36
!	!	!LO:TX:a:i:t=Solo:mod=	!	!	!	!	!	!LO:TX:a:t=2.:mod=	!
8qaa-/	.	.	.	.	.	.	.	.	.
(>8gg-X\L	.	2An\	bo-	.	2ff\	bo-	.	0r	.
8ff\)	.	.	.	.	.	.	.	.	.
(>8gg-\	.	.	.	.	.	.	.	.	.
8ff\J)	.	.	.	.	.	.	.	.	.
8qqaa-/	.	.	.	.	.	.	.	.	.
!	!	!	!LO:MO:mod=-nae	!	!	!LO:MO:mod=-nae	!	!	!
(>8gg-\L	.	4A\	-ne	.	4ff\	-ne	.	.	.
8ff\)	.	.	.	.	.	.	.	.	.
8ccc\	.	4A\	vo-	.	4ff\	vo-	.	.	.
8aan\J	.	.	.	.	.	.	.	.	.
=37	=37	=37	=37	=37	=37	=37	=37	=37	=37
8ff\L	.	2Any\	-lun-	.	2ff\	-lun-	.	.	.
8gg-X\	.	.	.	.	.	.	.	.	.
8ff\	.	.	.	.	.	.	.	.	.
8ee-\J	.	.	.	.	.	.	.	.	.
8dd-X\L	.	2A\	-ta-	.	2ff\	-ta-	.	.	.
8cc\	.	.	.	.	.	.	.	.	.
8dd-\	.	.	.	.	.	.	.	.	.
8b-\J	.	.	.	.	.	.	.	.	.
=38	=38	=38	=38	=38	=38	=38	=38	=38	=38
4.an\ 4.ff	.	2F\	-tis	.	2ff\	-tis	.	8cc\L	.
.	.	.	.	.	.	.	.	8ff\	.
.	.	.	.	.	.	.	.	8cc\	.
8a\ 8ff	.	.	.	.	.	.	.	8ff\J	.
!LO:SIC:v:s=4.b-\ 4.ff	!	!	!	!	!	!	!	!	!
4.a\ 4.ff	.	2B-\	bo-	.	2ff\	bo-	.	8dd\L	.
.	.	.	.	.	.	.	.	8ff\	.
.	.	.	.	.	.	.	.	8dd\	.
!LO:SIC:v:s=8b-\ 8 ff	!	!	!	!	!	!	!	!	!
8a\ 8ff	.	.	.	.	.	.	.	8ff\J	.
=39	=39	=39	=39	=39	=39	=39	=39	=39	=39
*rep	*	*	*	*	*	*	*	*rep	*
!	!	!	!LO:MO:mod=-nae	!	!	!LO:MO:mod=-nae	!	!	!
4.an\ 4.ff	.	2F\	-ne	.	2ff\	-ne	.	8cc\L	.
.	.	.	.	.	.	.	.	8ff\	.
.	.	.	.	.	.	.	.	8cc\	.
8a\ 8ff	.	.	.	.	.	.	.	8ff\J	.
4.a\ 4.ff	.	2B-\	vo-	.	2ff\	vo-	.	8dd\L	.
.	.	.	.	.	.	.	.	8ff\	.
.	.	.	.	.	.	.	.	8dd\	.
8a\ 8ff	.	.	.	.	.	.	.	8ff\J	.
*Xrep	*	*	*	*	*	*	*	*Xrep	*
!	!	!LO:LB:g=original	!	!	!	!	!	!	!
=40	=40	=40	=40	=40	=40	=40	=40	=40	=40
!LO:SIC:v:s=4a 4ff	!	!	!	!	!	!	!	!	!
4ff\	.	4F\	-lun-	.	4ff\	-lun-	.	4cc\	.
!LO:SIC:v:s=4a 4ff	!	!	!	!	!	!	!	!	!
4ff\	.	4F\	-ta-	.	4ff\	-ta-	.	4cc\	.
!LO:SIC:v:s=4a 4ff	!	!	!	!	!	!	!	!	!
4ff\	.	4F\	-tis	.	4ff\	-tis	.	4cc\	.
4r	.	4r	.	.	4r	.	.	4r	.
=41	=41	=41	=41	=41	=41	=41	=41	=41	=41
!LO:TX:a:t=8.:mod=	!	!LO:TX:a:t=2:mod=	!	!	!LO:TX:a:t=2:mod=	!	!	!LO:TX:a:t=4.:mod=	!
1r	.	1r	.	.	1r	.	.	00r	.
=42	=42	=42	=42	=42	=42	=42	=42	=42	=42
1r	.	1r	.	.	1r	.	.	.	.
=43	=43	=43	=43	=43	=43	=43	=43	=43	=43
!	!	!LO:TX:a:i:t=Solo	!	!	!LO:TX:a:i:t=Solo	!	!	!	!
1r	.	2F\	Glo-	.	2dd\	Glo-	.	.	.
.	.	4D\	-ri-	.	4b-\	-ri-	.	.	.
.	.	4D\	-a	.	4b-\	-a	.	.	.
=44	=44	=44	=44	=44	=44	=44	=44	=44	=44
1r	.	4.E-\	in	.	4.cc\	in	.	.	.
.	.	8E-\	ex-	.	8cc\	ex-	.	.	.
.	.	4C\	-cel-	.	4an\	-cel-	.	.	.
.	.	4C\	-sis	.	4a\	-sis	.	.	.
!	!	!	!	!	!LO:LB:g=original	!	!	!	!
=45	=45	=45	=45	=45	=45	=45	=45	=45	=45
!	!	!	!	!	!	!	!	!LO:MO:mod=!LO&colon;TX&colon;&colon;i&colon;t=dolce	!
!	!	!	!	!	!	!	!	!LO:TX:b:i:t=dolce	!
!	!	!	!	!	!	!	!	!LO:MO:mod=!LO&colon;TX&colon;&colon;i&colon;t=Solo	!
!	!	!	!	!	!	!	!	!LO:TX:a:i:t=ſolo	!
1r	.	4D\	De-	.	4b-\	De-	.	8r	p
.	.	.	.	.	.	.	.	(>8eeX\L	.
!	!	!	!LO:MO:mod=-o	!	!	!	!	!	!
.	.	4D\	-o.	.	4b-\	-o	.	8ff\	.
.	.	.	.	.	.	.	.	8ee\J)	.
.	.	2r	.	.	2r	.	.	8ff\L	.
.	.	.	.	.	.	.	.	8eeX\	.
.	.	.	.	.	.	.	.	8ff\	.
.	.	.	.	.	.	.	.	8ee\J	.
=46	=46	=46	=46	=46	=46	=46	=46	=46	=46
!	!	!LO:TX:a:mod=:t=1	!	!	!LO:TX:a:mod=:t=1	!	!	!	!
1r	.	1r	.	.	1r	.	.	8ff\L	.
.	.	.	.	.	.	.	.	8eeX\	.
.	.	.	.	.	.	.	.	8ff\	.
.	.	.	.	.	.	.	.	8gg\J	.
.	.	.	.	.	.	.	.	8ff\L	.
.	.	.	.	.	.	.	.	8dd\	.
.	.	.	.	.	.	.	.	8ee-\	.
.	.	.	.	.	.	.	.	8cc\J	.
!	!	!	!	!	!	!	!	!LO:LB:g=original	!
=47	=47	=47	=47	=47	=47	=47	=47	=47	=47
!	!	!LO:TX:a:i:t=Solo	!	!	!LO:TX:a:i:t=Solo	!	!	!LO:TX:a:t=2.:mod=	!
1r	.	2F\	Glo-	.	2dd\	Glo-	.	0r	.
.	.	4D\	-ri-	.	4b-\	-ri-	.	.	.
.	.	4D\	-a	.	4b-\	-a	.	.	.
=48	=48	=48	=48	=48	=48	=48	=48	=48	=48
1r	.	4.E-\	in	.	4.cc\	in	.	.	.
.	.	8E-\	ex-	.	8cc\	ex-	.	.	.
.	.	4C\	-cel-	.	4an\	-cel-	.	.	.
.	.	4C\	-sis	.	4a\	-sis	.	.	.
!	!	!LO:LB:g=original	!	!	!	!	!	!	!
=49	=49	=49	=49	=49	=49	=49	=49	=49	=49
1r	.	4D\	De-	.	4b-\	De-	.	2r	.
.	.	4D\	-o	.	4b-\	-o	.	.	.
.	.	2r	.	.	2r	.	.	4r	.
!	!	!	!	!	!	!	!	!	!LO:DY:t=for.:rj:mod=
.	.	.	.	.	.	.	.	4aa\	f
!LO:LB:g=original	!	!	!	!	!	!	!	!	!
=50	=50	=50	=50	=50	=50	=50	=50	=50	=50
!LO:TX:mod=:t=P:problem=Uwaga od tego momentu fragment źródłowy partii skrzypiec bardzo zniszczony i nie pozwala na transkrypcje	!	!	!	!	!	!	!	!	!
1ryyyy	.	2B-\	Et	.	2dd\	Et	.	8bb-\L	.
.	.	.	.	.	.	.	.	8eeX\	.
.	.	.	.	.	.	.	.	8ff\	.
.	.	.	.	.	.	.	.	8ee\J	.
.	.	2F\	in	.	2cc\	in	.	4ee\	.
!	!	!	!	!	!	!	!	!LO:SIC:v:s=4aan\	!
.	.	.	.	.	.	.	.	4aa-\	.
=51	=51	=51	=51	=51	=51	=51	=51	=51	=51
1ryyyy	.	2B-\	ter-	.	2dd\	ter-	.	8bb-\L	.
.	.	.	.	.	.	.	.	8eeX\	.
.	.	.	.	.	.	.	.	8ff\	.
.	.	.	.	.	.	.	.	8ee\J	.
.	.	2F\	-ra	.	2cc\	-ra	.	4ee\	.
.	.	.	.	.	.	.	.	.	.
!	!	!	!	!	!	!	!	!LO:SIC:v:s=4aan\	!
.	.	.	.	.	.	.	.	4aa-\	.
.	.	.	.	.	.	.	.	.	.
!	!	!	!	!	!LO:LB:g=original	!	!	!	!
=52	=52	=52	=52	=52	=52	=52	=52	=52	=52
1ryyyy	.	2B-\	pax	.	2dd\	pax	.	4bb-\	.
.	.	.	.	.	.	.	.	.	.
.	.	.	.	.	.	.	.	4bb-\	.
.	.	.	.	.	.	.	.	.	.
.	.	2B-\	ho-	.	2dd\	ho-	.	4bb-\	.
.	.	.	.	.	.	.	.	.	.
.	.	.	.	.	.	.	.	4bb-\	.
.	.	.	.	.	.	.	.	.	.
=53	=53	=53	=53	=53	=53	=53	=53	=53	=53
1ryyyy	.	4B-\	-mi-	.	4dd\	-mi-	.	4bb-\	.
.	.	4r	.	.	4r	.	.	4r	.
.	.	4B-\	-ni-	.	4dd\	-ni-	.	4bb-\	.
.	.	4r	.	.	4r	.	.	4r	.
=54	=54	=54	=54	=54	=54	=54	=54	=54	=54
1ryyyy	.	2B-\	-bus	.	2dd\	-bus	.	2bb-\	.
.	.	2r	.	.	2r	.	.	2r	.
=55	=55	=55	=55	=55	=55	=55	=55	=55	=55
!	!	!LO:TX:a:t=2.:mod=	!	!	!LO:TX:a:mod=:t=14	!	!	!LO:TX:a:t=2.:mod=	!
!	!	!LO:TX:b::mod=:t=Gloria\nDacapo\nad finis	!	!	!	!	!	!	!
1ryyyy	.	1r	.	.	1r	.	.	0r	.
=56	=56	=56	=56	=56	=56	=56	=56	=56	=56
1ryyyy	.	1r	.	.	1r	.	.	.	.
!	!	!LO:PB:g=original	!	!	!	!	!	!	!
!!LO:TX:a:B:t=:mod=Da Capo al Fine
!!LO:MO:ori
=57	=57	=57	=57	=57	=57	=57	=57	=57	=57
!	!	!LO:TXX:a:t=12.	!	!	!	!	!	!	!
1ryy	.	1ryy	.	.	1r	.	.	2ee-\	p
.	.	.	.	.	.	.	.	2r	.
=58	=58	=58	=58	=58	=58	=58	=58	=58	=58
!	!	!	!	!	!	!	!	!LO:TX:a:mod=:t=1.	!
1ryy	.	1ryy	.	.	1r	.	.	1r	.
=59	=59	=59	=59	=59	=59	=59	=59	=59	=59
1ryy	.	1ryy	.	.	1r	.	.	2ee-\	.
.	.	.	.	.	.	.	.	2r	.
=60	=60	=60	=60	=60	=60	=60	=60	=60	=60
!	!	!	!	!	!	!	!	!LO:TX:a:mod=:t=1.	!
1ryy	.	1ryy	.	.	1r	.	.	1r	.
=61	=61	=61	=61	=61	=61	=61	=61	=61	=61
1ryy	.	1ryy	.	.	1r	.	.	4ee-\	.
.	.	.	.	.	.	.	.	4r	.
.	.	.	.	.	.	.	.	2r	.
!	!	!	!	!	!	!	!	!LO:LB:g=original	!
=62	=62	=62	=62	=62	=62	=62	=62	=62	=62
1ryy	.	1ryy	.	.	1r	.	.	4ff\	.
.	.	.	.	.	.	.	.	4r	.
.	.	.	.	.	.	.	.	2r	.
=63	=63	=63	=63	=63	=63	=63	=63	=63	=63
1ryy	.	1ryy	.	.	1r	.	.	4ff\	.
.	.	.	.	.	.	.	.	4r	.
.	.	.	.	.	.	.	.	4ff\	.
.	.	.	.	.	.	.	.	4r	.
=64	=64	=64	=64	=64	=64	=64	=64	=64	=64
1ryy	.	1ryy	.	.	1r	.	.	4ff\	.
.	.	.	.	.	.	.	.	4r	.
.	.	.	.	.	.	.	.	4ff\	.
.	.	.	.	.	.	.	.	4r	.
=65	=65	=65	=65	=65	=65	=65	=65	=65	=65
!	!	!	!	!	!	!	!	!LO:TX:mod=:t=P:problem=2 takty zapisane repetycją	!
1ryy	.	1ryy	.	.	1r	.	.	4ff\	.
.	.	.	.	.	.	.	.	4r	.
.	.	.	.	.	.	.	.	4ff\	.
.	.	.	.	.	.	.	.	4r	.
=66	=66	=66	=66	=66	=66	=66	=66	=66	=66
1ryy	.	1ryy	.	.	1r	.	.	4ff\	.
.	.	.	.	.	.	.	.	4r	.
.	.	.	.	.	.	.	.	4ff\	.
.	.	.	.	.	.	.	.	4r	.
=67	=67	=67	=67	=67	=67	=67	=67	=67	=67
1ryy	.	1ryy	.	.	1r	.	.	4ff\	.
.	.	.	.	.	.	.	.	4r	.
.	.	.	.	.	.	.	.	2r	.
=68	=68	=68	=68	=68	=68	=68	=68	=68	=68
!	!	!	!	!	!	!	!	!LO:TX:a:mod=:t=1	!
1ryy	.	1ryy	.	.	1r	.	.	1r	.
=69	=69	=69	=69	=69	=69	=69	=69	=69	=69
!	!	!	!	!LO:DY:b:t=for:rj	!	!	!	!	!LO:DY:b:t=for.
1ryy	.	2E-\yy	Glo-	fy	2ee-\	Glo-	.	2ee-\	f
.	.	2ryy	.	.	2r	.	.	2r	.
=70	=70	=70	=70	=70	=70	=70	=70	=70	=70
!	!	!LO:TXX:a:t=1	!	!	!LO:TX:a:mod=:t=1	!	!	!LO:TX:a:mod=:t=1.	!
1ryy	.	1ryy	.	.	1r	.	.	1r	.
=71	=71	=71	=71	=71	=71	=71	=71	=71	=71
1ryy	.	2E-\yy	-ri-	.	2ee-\	-ri-	.	2ee-\	.
.	.	2ryy	.	.	2r	.	.	2r	.
=72	=72	=72	=72	=72	=72	=72	=72	=72	=72
!	!	!LO:TXX:a:t=1	!	!	!LO:TX:a:mod=:t=1	!	!	!LO:TX:a:mod=:t=1.	!
1ryy	.	1ryy	.	.	1r	.	.	1r	.
=73	=73	=73	=73	=73	=73	=73	=73	=73	=73
1ryy	.	2E-\yy	-a	.	2ee-\	-a	.	2ee-\	.
.	.	2ryy	.	.	2r	.	.	2r	.
=74	=74	=74	=74	=74	=74	=74	=74	=74	=74
1ryy	.	2E-\yy	in	.	2ee-\	in	.	2gg\	.
.	.	2ryy	.	.	2r	.	.	2r	.
=75	=75	=75	=75	=75	=75	=75	=75	=75	=75
1ryy	.	2BB-/yy	ex-	.	2dd\	ex-	.	8ff\	.
.	.	.	.	.	.	.	.	4ff\	.
.	.	.	.	.	.	.	.	4ff\	.
.	.	4BB-/yy	-cel-	.	4dd\	-cel-	.	.	.
.	.	.	.	.	.	.	.	4ff\	.
.	.	4BB-/yy	-sis	.	4dd\	-sis	.	.	.
.	.	.	.	.	.	.	.	8ff\	.
!LO:PB:g=original	!	!	!	!	!	!	!	!	!
=76	=76	=76	=76	=76	=76	=76	=76	=76	=76
2r	.	2B-\yy	De-	.	2dd\	De-	.	8bb-\	.
.	.	.	.	.	.	.	.	4bb-\	.
.	.	.	.	.	.	.	.	4bb-\	.
4r	.	2B-\yy	-o	.	2dd\	-o	.	.	.
.	.	.	.	.	.	.	.	4bb-\	.
4f\ 4cc 4aan	.	.	.	.	.	.	.	.	.
.	.	.	.	.	.	.	.	8bb-\	.
!	!	!	!	!	!LO:LB:g=original	!	!	!LO:LB:g=original	!
=77	=77	=77	=77	=77	=77	=77	=77	=77	=77
4f\ 4dd 4bb-	.	2E-\yy	Glo-	.	2ee-\	Glo-	.	2ee-\	.
4r	.	.	.	.	.	.	.	.	.
4r	.	2ryy	.	.	2r	.	.	2r	.
!LO:SIC:v:n=1:s=4aan	!	!	!	!	!	!	!	!	!
4f\ 4cc 4aa-	.	.	.	.	.	.	.	.	.
=78	=78	=78	=78	=78	=78	=78	=78	=78	=78
4f\ 4dd 4bb-	.	2E-\yy	-ri-	.	2ee-\	-ri-	.	2gg\	.
4r	.	.	.	.	.	.	.	.	.
4r	.	2ryy	.	.	2r	.	.	2r	.
!LO:SIC:v:n=1:s=4aan	!	!	!	!	!	!	!	!	!
4f\ 4cc 4aa-	.	.	.	.	.	.	.	.	.
=79	=79	=79	=79	=79	=79	=79	=79	=79	=79
4f\ 4dd 4bb-	.	2BB-/yy	a	.	2dd\	-a	.	8ff\	.
.	.	.	.	.	.	.	.	4ff\	.
4f\ 4dd 4bb-	.	.	.	.	.	.	.	.	.
.	.	.	.	.	.	.	.	4ff\	.
4f\ 4dd 4bb-	.	4BB-/yy	in	.	4dd\	in	.	.	.
.	.	.	.	.	.	.	.	4ff\	.
4f\ 4dd 4bb-	.	4BB-/yy	ex-	.	4dd\	ex-	.	.	.
.	.	.	.	.	.	.	.	8ff\	.
=80	=80	=80	=80	=80	=80	=80	=80	=80	=80
4f\ 4dd 4bb-	.	2B-\yy	-cel-	.	2dd\	-cel-	.	8bb-\	.
.	.	.	.	.	.	.	.	4bb-\	.
4r	.	.	.	.	.	.	.	.	.
.	.	.	.	.	.	.	.	4bb-\	.
4f\ 4dd 4bb-	.	2B-\yy	-siſ	.	2dd\	-sis	.	.	.
.	.	.	.	.	.	.	.	4bb-\	.
4r	.	.	.	.	.	.	.	.	.
.	.	.	.	.	.	.	.	8bb-\	.
=81	=81	=81	=81	=81	=81	=81	=81	=81	=81
(>8f\L 8dd 8bb-	.	4E-\yy	De-	.	4ee-\	De-	.	4gg\	.
8b-\)	.	.	.	.	.	.	.	.	.
(>8an\	.	4ryy	.	.	4r	.	.	4r	.
8b-\J	.	.	.	.	.	.	.	.	.
8cc\L	.	4ryy	.	.	4r	.	.	4r	.
8b-\	.	.	.	.	.	.	.	.	.
8dd\	.	4E-\yy	-o	.	4ee-\	-o	.	4gg\	.
8cc\J)	.	.	.	.	.	.	.	.	.
=82	=82	=82	=82	=82	=82	=82	=82	=82	=82
8ee-\L	.	4BB-/yy	Glo-	.	4dd\	Glo-	.	4ff\	.
8dd\	.	.	.	.	.	.	.	.	.
8ff\	.	4ryy	.	.	4r	.	.	4r	.
8ee-\J	.	.	.	.	.	.	.	.	.
8gg\L	.	4ryy	.	.	4r	.	.	4r	.
8ff\	.	.	.	.	.	.	.	.	.
8aa-X\	.	4BB-/yy	-ri-	.	4dd\	-ri-	.	4ff\	.
8gg\J	.	.	.	.	.	.	.	.	.
=83	=83	=83	=83	=83	=83	=83	=83	=83	=83
8bb-\L	.	4E-\yy	-a	.	4ee-\	-a	.	4gg\	.
8aa-\	.	.	.	.	.	.	.	.	.
8gg\J	.	4ryy	.	.	4r	.	.	4r	.
8ryy	.	.	.	.	.	.	.	.	.
!LO:TX:mod=:t=P:problem=dalszy fragment niewidoczny	!	!	!	!	!	!	!	!	!
2ryy	.	4ryy	.	.	4r	.	.	4r	.
.	.	4E-\yy	in	.	4ee-\	in	.	4gg\	.
=84	=84	=84	=84	=84	=84	=84	=84	=84	=84
1ryy	.	4B-\yy	ex-	.	4dd\	ex-	.	4ff\	.
.	.	4ryy	.	.	4r	.	.	4r	.
.	.	4ryy	.	.	4r	.	.	4r	.
.	.	4BB-/yy	-cel-	.	4dd\	-cel-	.	4ff\	.
=85	=85	=85	=85	=85	=85	=85	=85	=85	=85
1ryy	.	4E-\yy	-siſ	.	4ee-\	-sis	.	4gg\	.
.	.	4E-\yy	De-	.	4ee-\	De-	.	4ee-\	.
.	.	4E-\yy	-o	.	4ee-\	-o	.	4ee-\	.
.	.	4ryy	.	.	4r	.	.	4r	.
!	!	!	!	!	!LO:PB:g=original	!	!	!LO:PB:g=original	!
!!LO:MO:end
==	==	==	==	==	==	==	==	==	==
*-	*-	*-	*-	*-	*-	*-	*-	*-	*-
!!!system-decoration: (s1)[(s2,s3)](s4)
!!!RDF**kern: < = below
!!!RDF**kern: > = above
!!!RDF**kern: | = vertical stroke
!!!filter-modern: sic -sq | shed -e "s/:rj/:RJ/L" | modori -m | shed -e "s/LO:DY:(a|b|rj)/LO:dy:$1/L" | shed -e "s/yy//" | shed -e "s/^(X?)rep$/$1REP/I" | autostem -r | tie -s | shed -k -e "s/[<>]//g" | shed -e "s/^(X?)rep$/$1REP/I" | humtr -p
!!!ENC: Tomasz Grochalski
!!!END: 2020-08-11
!!!ENC: Marta Chmielewska
!!!END: 2021-11-19
!!!ENC-modern: Andrzej Borzym
!!!END-modern: 2022-06-17
!!!YEC: Copyright 2022 Narodowy Instytut Fryderyka Chopina (https://polishscores.org)
!!!YEM: License CC-BY-4.0 (https://creativecommons.org/licenses/by/4.0)
